X:1
T:Title
%%score { ( 1 2 6 ) | ( 3 4 5 ) }
L:1/8
Q:1/4=100
M:6/8
K:Ab
V:1 treble nm="Grand Piano"
V:2 treble 
V:6 treble 
V:3 bass 
V:4 bass 
V:5 bass 
V:1
 .[Ec]6 | [Ec]3 z3 | .[Fd]6 | [Ec]3 z3 | .[=Dc]6 | [EG]3 z3 | [B,G]3 z3 | %7
w: J.~Lincoln~Hall|||||||
[M:15/16] E3/2-E3/2- E3- E z/ |[M:3/4] [Ec]4 z2 | [Ec]4 z2 | [_Ge]4 z2 | [Fe]4 z2 | [Fd]4 z2 | %13
w: ||||||
 [Ec]4 z2 | =D3 .[_Dc]3 | A6 | [FA]3 [FA]2 [FB] | [Ec]6 | [FA]3 [FA]2 [FB] | [Ec]6 | [_Ge]4 z2 | %21
w: ||||||||
 [Fe]4 z2 | [Ec]3 .c3 | [CA-]2 A4 |] %24
w: |||
V:2
 z CC CAB | z CC A2 A | z DD z AB | z [A,C][A,C] [A,CE]3 | z A,A, z BF | z B,B, B2 A | %6
 z G,G, [A,B,G]2 F |[M:15/16] G,3 [G,D]3/2- [G,D]3 |[M:3/4] z C CC AB | z C C A2 A | z C .C2 fe | %11
 z D D [DFd]3 | z D .D2 AB | z C C E2 c | c-[B,c] .[B,F]2 G,B | z2 C4 | x6 | x6 | x6 | x6 | %20
 z C CC fe | z A, A, [Fd]2 [FA] | z A, .A,2 G,B | A,E, D C3 |] %24
V:3
 z3 z C2 | A,,[E,A,][E,A,] C2 C | D,,A,A, z[K:treble] F=E | A,,E,E, E,3 | B,,F,F, z =DD | %5
 E,,E,E, E2 C | z3 F,3 |[M:15/16] E,,E,/-E,/E,E,3/2- E,3 |[M:3/4] z2 z2 C2 | %9
 A,,[E,A,] [E,A,] C2 C | A,,A, .A,2[K:treble] A_G | D,A, A, A,3 | D,,A, .A,2[K:treble] FF | %13
 z2 z .C3 | B,,F, F,E,, E,[E,G,D] | A,,[E,A,] [E,A,] [A,,E,]3 | [D,A,]3 [D,A,]2 [D,A,] | [A,,A,]6 | %18
 [D,A,]3 [D,A,]2 [D,A,] | [A,,A,]6 | [A,C]A, A,A,[K:treble] [A,CA][A,C_G] | [D,A,]D, D, [D,A,]3 | %22
 z2 z .D3 | A,,A,, [A,,F,] [A,,E,]3 |] %24
V:4
 z3 [E,A,]3 | z3 [E,A,]3 | z3 A,3[K:treble] | x6 | z3 F,3 | z3 [E,G,]3 | B,,E,E, z2 A, | %7
[M:15/16] x15/2 |[M:3/4] z2 z [E,A,]3 | z2 z [E,A,]3 | z2 z A,3[K:treble] | x6 | %12
 z2 z A,3[K:treble] | A,,[E,A,] [E,A,] [E,A,]2- [E,A,E] | x6 | x6 | x6 | x6 | x6 | x6 | %20
 x4[K:treble] x2 | x6 | [E,A,]E, E,[E,G,] E,[E,G,D] | x6 |] %24
V:5
 A,,[E,A,][E,A,] z2 D | x6 | x4[K:treble] x2 | x6 | x6 | x6 | x6 |[M:15/16] x15/2 | %8
[M:3/4] A,,[E,A,] .[E,A,]2 z D | x6 | x4[K:treble] x2 | x6 | x4[K:treble] x2 | x6 | x6 | x6 | x6 | %17
 x6 | x6 | x6 | x4[K:treble] x2 | x6 | x6 | x6 |] %24
V:6
 x6 | x6 | z3 D3 | x6 | z3 A,3 | x6 | x6 |[M:15/16] x15/2 |[M:3/4] x6 | x6 | z2 z C3 | x6 | %12
 z2 z D3 | x6 | x6 | CC z A,3 | x6 | x6 | x6 | x6 | x6 | x6 | x6 | x6 |] %24

